icons/circle-chevron-up.svg

<svg xmlns="http://www.w3.org/2000/svg" width="24" height="24" viewBox="0 0 24 24">
  <path d="M12,1 C18.0751322,1 23,5.92486775 23,12 C23,18.0751322 18.0751322,23 12,23 C5.92486775,23 1,18.0751322 1,12 C1,5.92486775 5.92486775,1 12,1 Z M12.6128994,9.20970461 C12.2206082,8.90467972 11.6533772,8.93240926 11.2928932,9.29289322 L11.2928932,9.29289322 L7.29289322,13.2928932 L7.20970461,13.3871006 C6.90467972,13.7793918 6.93240926,14.3466228 7.29289322,14.7071068 L7.29289322,14.7071068 L7.38710056,14.7902954 C7.77939176,15.0953203 8.34662282,15.0675907 8.70710678,14.7071068 L8.70710678,14.7071068 L12,11.415 L15.2928932,14.7071068 L15.3871006,14.7902954 C15.7793918,15.0953203 16.3466228,15.0675907 16.7071068,14.7071068 C17.0976311,14.3165825 17.0976311,13.6834175 16.7071068,13.2928932 L16.7071068,13.2928932 L12.7071068,9.29289322 Z"/>
</svg>

<svg xmlns="http://www.w3.org/2000/svg" viewBox="0 0 24 24">
  <path d="M12 1a11 11 0 1 1 0 22 11 11 0 0 1 0-22zm.61 8.21a1 1 0 0 0-1.32.08l-4 4-.08.1a1 1 0 0 0 .08 1.32l.1.08a1 1 0 0 0 1.32-.08L12 11.4l3.3 3.3.09.08a1 1 0 0 0 1.32-1.5l-4-4z"/>
</svg>
